X: 19157
T: Iron Horse, The
R: jig
M: 6/8
K: Edorian
F|EFA B3|ABd e3|fed eEF|GAG FED|
EFA B3|ABd e3|fed eEF|GAF E2:|
A|FBB Bcd|Add def|efe efa|bee efe|
FBB Bcd|Add def|efe efe|1 dBB B2:|2 d3 BAF||

